icons/1_Primary/Railway.svg

<svg width="1024" height="1024" viewBox="0 0 1024 1024" fill="none" xmlns="http://www.w3.org/2000/svg">
<g clip-path="url(#clip0_2_3282)">
<path d="M512 1024C794.77 1024 1024 794.77 1024 512C1024 229.23 794.77 0 512 0C229.23 0 0 229.23 0 512C0 794.77 229.23 1024 512 1024Z" fill="#56595B"/>
<path d="M619.88 547.5H258.19C257.26 540.76 256.61 533.92 256.19 526.99H648C645 538.34 636 547.5 619.88 547.5ZM297.27 618.34H278.71C319.12 706.77 408.17 768.28 511.71 768.28C615.25 768.28 704.25 706.74 744.71 618.34H297.27ZM511.73 255.72C415.98 255.72 332.66 308.33 288.66 386.1C323 386 390 386 390 386C469.15 386 472.1 386.35 487.56 387L497.13 387.35C530.48 388.46 571.47 392.04 603.73 416.46C621.24 429.7 646.52 458.93 661.58 479.76C675.51 499.02 679.52 521.16 670.05 542.38C661.33 561.88 642.57 573.51 619.86 573.51H263.12C264.646 579.879 266.437 586.181 268.49 592.4H755C763.603 566.467 767.992 539.323 768 512C768 370.47 653.27 255.72 511.73 255.72ZM258.38 475.2C257.16 483.733 256.367 492.333 256 501H644.9C643.474 498.382 641.8 495.907 639.9 493.61C573.41 407.66 537.65 415.12 486.49 412.93C469.43 412.23 457.87 411.93 389.97 411.93C353.7 411.93 314.27 412.02 275.87 412.12C270.806 424.149 266.674 436.548 263.51 449.21H462.8V475.21L258.38 475.2Z" fill="white"/>
</g>
<defs>
<clipPath id="clip0_2_3282">
<rect width="1024" height="1024" fill="white"/>
</clipPath>
</defs>
</svg>

<svg xmlns="http://www.w3.org/2000/svg" width="1024" height="1024" fill="none">
   <g clip-path="url(#a)">
      <path fill="#56595B" d="M512 1024c282.77 0 512-229.23 512-512S794.77 0 512 0 0 229.23 0 512s229.23 512 512 512Z"/>
      <path fill="#fff" d="M619.88 547.5H258.19c-.93-6.74-1.58-13.58-2-20.51H648c-3 11.35-12 20.51-28.12 20.51Zm-322.61 70.84h-18.56c40.41 88.43 129.46 149.94 233 149.94 103.54 0 192.54-61.54 233-149.94H297.27Zm214.46-362.62c-95.75 0-179.07 52.61-223.07 130.38C323 386 390 386 390 386c79.15 0 82.1.35 97.56 1l9.57.35c33.35 1.11 74.34 4.69 106.6 29.11 17.51 13.24 42.79 42.47 57.85 63.3 13.93 19.26 17.94 41.4 8.47 62.62-8.72 19.5-27.48 31.13-50.19 31.13H263.12a234.724 234.724 0 0 0 5.37 18.89H755a255.582 255.582 0 0 0 13-80.4c0-141.53-114.73-256.28-256.27-256.28ZM258.38 475.2A259.842 259.842 0 0 0 256 501h388.9a46.464 46.464 0 0 0-5-7.39c-66.49-85.95-102.25-78.49-153.41-80.68-17.06-.7-28.62-1-96.52-1-36.27 0-75.7.09-114.1.19a254.775 254.775 0 0 0-12.36 37.09H462.8v26l-204.42-.01Z"/>
   </g>
   <defs>
      <clipPath id="a">
         <path fill="#fff" d="M0 0h1024v1024H0z"/>
      </clipPath>
   </defs>
</svg>
